!!!SOCIAL_FUNCTION:	parade songs
!!!PDT:	1922
!!!OTL: No_90_Parade_Song_(h).krn
!!!REG: Southwest
!!!LANG: Non-Tone
!!!LING_GROUP: Uto-Aztecan
**kern	**kern
*staff2	*staff1
*clefF4	*clefF4
*k[f#c#]	*k[f#c#]
*M2/4	*M2/4
8r	8A\
=1	=1
8GG/L	4d\
8GG/J	.
8GG/L	4d\
8GG/J	.
=2	=2
8GG/L	2d\
8GG/J	.
8GG/L	.
8GG/J	.
=3	=3
2r	16.d\LL
.	32A\K
.	16d\
.	16A\JJ
.	20d\LL
.	20A\
.	20d\
.	20A\
.	20F#\JJ
=4	=4
2r	2E\
=5	=5
2r	8.G\L
.	16F#\Jk
.	4D\
=6||	=6||
*M3/4	*M3/4
2.r	8.G\L
.	16F#\Jk
.	2D\
=7||	=7||
*M2/4	*M2/4
2r	2A\
=8	=8
2r	16.d\LL
.	32A\K
.	16d\
.	16A\JJ
.	16d\LL
.	16A\J
.	8F#\J
=9	=9
2r	2E\
=10	=10
2r	8.A\L
.	16G\Jk
.	24A\LL
.	24G\
.	24A\JJ
.	8G\
=11	=11
2r	4G\
.	8A\L
.	16.G\L
.	32G\JJk
=12	=12
2r	4D\
.	4D\
=13	=13
2r	2D\
==	==
*-	*-
